assets/logobrand.svg

<svg fill="none" height="110" viewBox="0 0 300 117" width="100" xmlns="http://www.w3.org/2000/svg"><path clip-rule="evenodd" d="m167.242 3.34233c4.838 0 6.825 4.55771 6.825 5.72636-2.774 0-6.665 10.02191-17.354 37.55711l-.082.2135c-10.729 27.6268-17.016 40.2248-21.784 40.2248-7.222 0-10.705-19.1191-10.681-42.1414 0-9.5829 4.791-37.44337 11.219-43.8008.677-.677814 3.926-1.12189658 4.955-1.12189658 2.314 0 3.389.58432258 3.389.58432258s-11.406 19.142374-11.406 57.707674c0 7.0119.818 20.0773 2.805 20.0773 3.224 0 8.959-17.3351 14.917-35.3401v-.0002c6.436-19.4524 13.131-39.68667 17.197-39.68667zm-106.5105 5.07193c2.6645 3.57604-.4441 6.98844-.4441 6.98844-1.8698-1.8932-13.1823.7012-25.3596 4.324-.4519 3.3079-1.8543 9.4815-4.3696 20.5534v.0001.0002l-.0002.0006-.0003.0016-.0007.0029c-.7368 3.2432-1.569 6.9067-2.5008 11.0414-2.0101 8.9518-6.1471 25.8972-6.1471 25.8972s-1.0985 1.0518-3.6695.374c-.6399-.1668-1.2172-.5166-1.6614-1.0064-.4442-.4899-.7359-1.0986-.8395-1.7516 7.1521-28.3748 9.6764-46.6757 10.3542-52.3553-10.3776 3.3657-19.91373 6.8716-23.11582 8.3441 0 0-1.77634-.2805-2.594392-1.7296s-.070119-2.9216-.070119-2.9216c4.440851-3.132 56.749431-22.69513 60.418931-17.76344zm46.4335 49.10994c.325-.4495.527-.728 1.411-.728.865 0 .841 1.005.841 1.005 0 2.2438-12.6444 20.3578-26.5513 20.3578-1.7062 0-6.3341-.818-9.2323-4.5343-4.9317 2.8281-9.7699 4.6278-13.6031 4.6278-.818 0-5.5861-.4674-5.5861-6.6145 0-2.8563 1.2129-6.786 2.3937-10.612 2.0272-6.5684 3.96-12.831-.5005-12.831-5.516 0-12.2006 10.5411-12.2006 10.5411s-3.6228 14.1406-4.1137 18.488c0 0-.5609.7246-2.5242.7246-3.6228 0-4.1604-3.0385-4.1604-3.0385s11.0086-39.8742 11.0086-49.2c0-2.6411-.3973-3.0385-.3973-3.0385s3.763-1.7763 6.2639-1.7763 2.5477 1.8231 2.5477 3.4825c0 5.4459-6.5912 26.9724-6.5912 26.9724s6.3341-9.6998 14.4211-9.6998c6.708 0 5.8432 7.643 5.8432 7.643 0 4.3295-2.3038 10.1538-4.0853 14.6576-1.123 2.839-2.0384 5.1533-2.0384 6.2377 0 1.9166 1.6128 2.2906 2.2672 2.2906 2.3373 0 5.5627-1.192 8.9986-3.0619-.2746-1.1956-.4079-2.4194-.3974-3.6461 0-12.8785 11.7098-23.8638 19.6566-23.8638 6.1004 0 6.1471 4.6512 6.1471 4.9317 0 6.7314-8.2039 16.2676-17.5764 23.0691.9817 1.6595 2.8047 3.2021 6.4509 3.2021 7.9925 0 19.6686-13.6317 20.8856-15.0527.036-.0418.063-.073.08-.093.139-.1599.246-.3077.342-.4406zm-16.6096-8.5813c0-1.7997-.7246-2.3841-1.753-2.3841-4.2773 0-10.1205 8.3442-10.4477 18.3945 6.5444-4.955 12.2007-11.3826 12.2007-16.0104zm205.7746-.935c-2.109-.0035-4.15.7514-5.749 2.127 0 0 1.262 1.3556 1.262 4.4175 0 6.1237-9.326 20.1942-14.421 20.1942-1.192 0-3.366-.3974-3.366-4.6746 0-3.4169 1.584-7.7492 3.144-12.0156v-.0003c1.513-4.1384 3.003-8.2149 3.003-11.3337 0-1.7296-1.192-2.8047-4.113-2.8047-1.796.0205-3.548.5559-5.049 1.5426 0 0 .841.6778.841 2.2906 0 4.3473-1.355 8.9518-2.664 13.1589-1.169 3.763-9.069 13.7199-17.717 13.7199-4.721 0-6.591-2.4542-7.362-4.6045 10.588-6.9184 19.025-16.2441 19.025-22.9989 0-.3038-.046-5.1888-6.451-5.1888-8.344 0-20.638 11.5228-20.638 25.0324-.023 11.406 9.583 13.1122 12.271 13.1122 7.059 0 13.556-3.8799 18.581-8.3441.257 5.516 3.132 9.3725 9.49 9.3725 6.684 0 11.429-8.5778 11.429-8.5778l-10.892 40.0373s1.309 3.81 5.353 3.81c2.244 0 2.571-2.618 2.571-2.618 5.093-24.8941 10.682-45.4367 13.419-55.498 1.069-3.9286 1.703-6.2592 1.703-6.6267 0-1.3089-.117-3.5294-3.67-3.5294zm-41.744-1.2153c1.076 0 1.847.6077 1.847 2.5009 0 4.5343-5.493 10.5645-12.715 15.4728.771-9.9335 6.568-17.9737 10.868-17.9737zm-33.072-25.7313s1.753-5.2589-2.338-5.2589c-2.404-.0172-4.775.5695-6.895 1.7062 0 0 1.029 2.9918-1.636 13.8602-.674 2.7407-1.704 6.9605-2.87 11.7395-.773 3.1682-1.606 6.5822-2.435 9.9739-3.88 13.1122-11.57 19.4229-14.024 19.4229-2.805 0 .047-11.0087.047-11.0087l3.085-12.1539 1.893-7.4325s-1.706-2.6646-3.646-2.6646-2.454.7012-2.454.7012l-.935 3.6696-.004-.0037c-.109-.1173-2.701-2.8946-7.709-2.8946-8.905.0468-20.732 15.4028-20.732 26.9022 0 9.9101 5.493 12.0137 7.923 12.0137 3.717 0 9.864-2.197 15.59-9.1388.117 4.0202 1.122 7.0353 3.927 7.0353 4.651 0 9.022-3.0385 12.785-7.0119-.888 3.6228-1.449 5.9601-1.449 5.9601s.865 3.1086 3.669 3.1086c2.151 0 2.922-.748 2.922-.748l7.292-27.5122.024-.0701h-.024zm-34.429 31.3408c-.257 1.005-.56 2.2437-.864 3.5994-3.132 12.5746-10.284 16.2441-13.253 16.2441 0 0-3.623.2338-3.623-6.4509-.023-9.2089 8.485-20.3578 13.837-20.3578 1.898-.0182 3.739.6453 5.189 1.8698zm42.095-31.2964s3.319-1.6127 7.176-1.6127c3.856 0 2.197 4.9551 2.197 4.9551l-14.398 54.4355c-1.089.4284-2.243.6656-3.413.7012-2.641 0-3.459-2.9216-3.459-2.9216s7.9-32.2313 10.378-42.492c2.477-10.2607 1.519-13.0655 1.519-13.0655z" fill="#fdfaf6" fill-rule="evenodd"/></svg>

<svg width="100" height="110" viewBox="0 0 300 117" fill="none" xmlns="http://www.w3.org/2000/svg">
<path fill-rule="evenodd" clip-rule="evenodd" d="M167.242 3.34233C172.08 3.34233 174.067 7.90004 174.067 9.06869C171.293 9.06869 167.402 19.0906 156.713 46.6258L156.631 46.8393C145.902 74.4661 139.615 87.0641 134.847 87.0641C127.625 87.0641 124.142 67.945 124.166 44.9227C124.166 35.3398 128.957 7.47933 135.385 1.1219C136.062 0.444086 139.311 3.42377e-06 140.34 3.42377e-06C142.654 3.42377e-06 143.729 0.584326 143.729 0.584326C143.729 0.584326 132.323 19.7267 132.323 58.292C132.323 65.3039 133.141 78.3693 135.128 78.3693C138.352 78.3693 144.087 61.0342 150.045 43.0292L150.045 43.029C156.481 23.5766 163.176 3.34233 167.242 3.34233ZM60.7315 8.41426C63.396 11.9903 60.2874 15.4027 60.2874 15.4027C58.4176 13.5095 47.1051 16.1039 34.9278 19.7267C34.4759 23.0346 33.0735 29.2082 30.5582 40.2801L30.5582 40.2802L30.5582 40.2804L30.558 40.281L30.5577 40.2826L30.557 40.2855C29.8202 43.5287 28.988 47.1922 28.0562 51.3269C26.0461 60.2787 21.9091 77.2241 21.9091 77.2241C21.9091 77.2241 20.8106 78.2759 18.2396 77.5981C17.5997 77.4313 17.0224 77.0815 16.5782 76.5917C16.134 76.1018 15.8423 75.4931 15.7387 74.8401C22.8908 46.4653 25.4151 28.1644 26.0929 22.4848C15.7153 25.8505 6.17917 29.3564 2.97708 30.8289C2.97708 30.8289 1.20074 30.5484 0.382688 29.0993C-0.435364 27.6502 0.312569 26.1777 0.312569 26.1777C4.75342 23.0457 57.062 3.48257 60.7315 8.41426ZM107.165 57.5242C107.49 57.0747 107.692 56.7962 108.576 56.7962C109.441 56.7962 109.417 57.8012 109.417 57.8012C109.417 60.045 96.7726 78.159 82.8657 78.159C81.1595 78.159 76.5316 77.341 73.6334 73.6247C68.7017 76.4528 63.8635 78.2525 60.0303 78.2525C59.2123 78.2525 54.4442 77.7851 54.4442 71.638C54.4442 68.7817 55.6571 64.852 56.8379 61.026C58.8651 54.4576 60.7979 48.195 56.3374 48.195C50.8214 48.195 44.1368 58.7361 44.1368 58.7361C44.1368 58.7361 40.514 72.8767 40.0231 77.2241C40.0231 77.2241 39.4622 77.9487 37.4989 77.9487C33.8761 77.9487 33.3385 74.9102 33.3385 74.9102C33.3385 74.9102 44.3471 35.036 44.3471 25.7102C44.3471 23.0691 43.9498 22.6717 43.9498 22.6717C43.9498 22.6717 47.7128 20.8954 50.2137 20.8954C52.7146 20.8954 52.7614 22.7185 52.7614 24.3779C52.7614 29.8238 46.1702 51.3503 46.1702 51.3503C46.1702 51.3503 52.5043 41.6505 60.5913 41.6505C67.2993 41.6505 66.4345 49.2935 66.4345 49.2935C66.4345 53.623 64.1307 59.4473 62.3492 63.9511L62.3492 63.9511C61.2262 66.7901 60.3108 69.1044 60.3108 70.1888C60.3108 72.1054 61.9236 72.4794 62.578 72.4794C64.9153 72.4794 68.1407 71.2874 71.5766 69.4175C71.302 68.2219 71.1687 66.9981 71.1792 65.7714C71.1792 52.8929 82.889 41.9076 90.8358 41.9076C96.9362 41.9076 96.9829 46.5588 96.9829 46.8393C96.9829 53.5707 88.779 63.1069 79.4065 69.9084C80.3882 71.5679 82.2112 73.1105 85.8574 73.1105C93.8499 73.1105 105.526 59.4788 106.743 58.0578C106.779 58.016 106.806 57.9848 106.823 57.9648C106.962 57.8049 107.069 57.6571 107.165 57.5242ZM90.5554 48.9429C90.5554 47.1432 89.8308 46.5588 88.8024 46.5588C84.5251 46.5588 78.6819 54.903 78.3547 64.9533C84.8991 59.9983 90.5554 53.5707 90.5554 48.9429ZM296.33 48.0079C294.221 48.0044 292.18 48.7593 290.581 50.1349C290.581 50.1349 291.843 51.4905 291.843 54.5524C291.843 60.6761 282.517 74.7466 277.422 74.7466C276.23 74.7466 274.056 74.3492 274.056 70.072C274.056 66.6551 275.64 62.3228 277.2 58.0564L277.2 58.0561C278.713 53.9177 280.203 49.8412 280.203 46.7224C280.203 44.9928 279.011 43.9177 276.09 43.9177C274.294 43.9382 272.542 44.4736 271.041 45.4603C271.041 45.4603 271.882 46.1381 271.882 47.7509C271.882 52.0982 270.527 56.7027 269.218 60.9098C268.049 64.6728 260.149 74.6297 251.501 74.6297C246.78 74.6297 244.91 72.1755 244.139 70.0252C254.727 63.1068 263.164 53.7811 263.164 47.0263C263.164 46.7225 263.118 41.8375 256.713 41.8375C248.369 41.8375 236.075 53.3603 236.075 66.8699C236.052 78.2759 245.658 79.9821 248.346 79.9821C255.405 79.9821 261.902 76.1022 266.927 71.638C267.184 77.154 270.059 81.0105 276.417 81.0105C283.101 81.0105 287.846 72.4327 287.846 72.4327L276.954 112.47C276.954 112.47 278.263 116.28 282.307 116.28C284.551 116.28 284.878 113.662 284.878 113.662C289.971 88.7679 295.56 68.2253 298.297 58.164C299.366 54.2354 300 51.9048 300 51.5373C300 50.2284 299.883 48.0079 296.33 48.0079ZM254.586 46.7926C255.662 46.7926 256.433 47.4003 256.433 49.2935C256.433 53.8278 250.94 59.858 243.718 64.7663C244.489 54.8328 250.286 46.7926 254.586 46.7926ZM221.514 21.0613C221.514 21.0613 223.267 15.8024 219.176 15.8024C216.772 15.7852 214.401 16.3719 212.281 17.5086C212.281 17.5086 213.31 20.5004 210.645 31.3688C209.971 34.1095 208.941 38.3293 207.775 43.1083C207.002 46.2765 206.169 49.6905 205.34 53.0822C201.46 66.1944 193.77 72.5051 191.316 72.5051C188.511 72.5051 191.363 61.4964 191.363 61.4964L194.448 49.3425L196.341 41.91C196.341 41.91 194.635 39.2454 192.695 39.2454C190.755 39.2454 190.241 39.9466 190.241 39.9466L189.306 43.6162L189.302 43.6125C189.193 43.4952 186.601 40.7179 181.593 40.7179C172.688 40.7647 160.861 56.1207 160.861 67.6201C160.861 77.5302 166.354 79.6338 168.784 79.6338C172.501 79.6338 178.648 77.4368 184.374 70.495C184.491 74.5152 185.496 77.5303 188.301 77.5303C192.952 77.5303 197.323 74.4918 201.086 70.5184C200.198 74.1412 199.637 76.4785 199.637 76.4785C199.637 76.4785 200.502 79.5871 203.306 79.5871C205.457 79.5871 206.228 78.8391 206.228 78.8391L213.52 51.3269L213.544 51.2568H213.52L221.514 21.0613ZM187.085 52.4021C186.828 53.4071 186.525 54.6458 186.221 56.0015C183.089 68.5761 175.937 72.2456 172.968 72.2456C172.968 72.2456 169.345 72.4794 169.345 65.7947C169.322 56.5858 177.83 45.4369 183.182 45.4369C185.08 45.4187 186.921 46.0822 188.371 47.3067L187.085 52.4021ZM229.18 21.1057C229.18 21.1057 232.499 19.493 236.356 19.493C240.212 19.493 238.553 24.4481 238.553 24.4481L224.155 78.8836C223.066 79.312 221.912 79.5492 220.742 79.5848C218.101 79.5848 217.283 76.6632 217.283 76.6632C217.283 76.6632 225.183 44.4319 227.661 34.1712C230.138 23.9105 229.18 21.1057 229.18 21.1057Z" fill="#FDFAF6"/>
</svg>
